X: 11532
Q: "Slow and with feeling."
M: 3/4
L: 1/8
K: Gm
dc |\
f2d2c2 | d4(GA) | B2c2d2 | f2d2c2 |\
d4(dc) | B2A2G2 | A2G2^F2 | G4z2 |\


